!!!OTL: EINEN RING TRAG ICH VON DIR
!!!ARE: Europa, Mitteleuropa, Deutschland, Schlesien
!!!SCT: E0435
!!!YEM: Copyright 1995, estate of Helmut Schaffrath.
**kern
*ICvox
*Ivox
*M4/4
*k[b-]
*F:
=1
{4cc
4cc
4a
4f
=2
4g
8a
8g
4f
4r}
=3
{4cc
4cc
4ff
4a
=4
4.cc
8b-
4a
4r}
=5
{4f
4f
4ff
4ff
=6
4b-
8dd
8cc
4cc
4r}
=7
{4a
4f
4cc
4a
=8
4g
8a
8g
4f
4r}
==
!!!AGN: Liebes - Lied, Treue
!!!ONB: ESAC (Essen Associative Code) Database: ERK1
!!!AMT: simple quadruple
!!!AIN: vox
!!!EED: Helmut Schaffrath
!!!EEV: 1.0
*-
